source/presentation/public/images/icons/types/fighting.svg

<svg width="1em" height="1em" viewBox="0 0 35 35" fill="none" xmlns="http://www.w3.org/2000/svg">
<circle cx="17.5" cy="17.5" r="17.5" fill="#B9433F"/>
<path d="M16.4 7.80001C16.4 7.46864 16.1313 7.20001 15.8 7.20001H12.8C12.4686 7.20001 12.2 7.46864 12.2 7.80001V15.9C12.2 16.2314 12.4686 16.5 12.8 16.5H15.8C16.1313 16.5 16.4 16.2314 16.4 15.9V7.80001Z" fill="black"/>
<path d="M11.3 9.00001C11.3 8.66864 11.0313 8.40001 10.7 8.40001H7.69998C7.3686 8.40001 7.09998 8.66864 7.09998 9.00001V15.9C7.09998 16.2314 7.3686 16.5 7.69998 16.5H10.7C11.0313 16.5 11.3 16.2314 11.3 15.9V9.00001Z" fill="black"/>
<path d="M7.69998 17.4C7.3686 17.4 7.09998 17.6686 7.09998 18V25.2C7.09998 25.5314 7.3686 25.8 7.69998 25.8H12.8C13.1313 25.8 13.4 25.5314 13.4 25.2V22.2C13.4 21.8686 13.6686 21.6 14 21.6H17C17.3313 21.6 17.6 21.3314 17.6 21V18C17.6 17.6686 17.3313 17.4 17 17.4H7.69998Z" fill="black"/>
<path d="M21.5 26.4C21.5 26.0686 21.7686 25.8 22.1 25.8H26.3C26.6313 25.8 26.9 25.5314 26.9 25.2V18C26.9 17.6686 26.6313 17.4 26.3 17.4H19.4C19.0686 17.4 18.8 17.6686 18.8 18V22.2C18.8 22.5314 18.5313 22.8 18.2 22.8H15.2C14.8686 22.8 14.6 23.0686 14.6 23.4V26.4C14.6 26.7314 14.3313 27 14 27H13.1C12.7686 27 12.5 27.2686 12.5 27.6V28.2C12.5 28.5314 12.7686 28.8 13.1 28.8H20.9C21.2313 28.8 21.5 28.5314 21.5 28.2V26.4Z" fill="black"/>
<path d="M17.3 7.80001C17.3 7.46864 17.5686 7.20001 17.9 7.20001H20.9C21.2313 7.20001 21.5 7.46864 21.5 7.80001V15.9C21.5 16.2314 21.2313 16.5 20.9 16.5H17.9C17.5686 16.5 17.3 16.2314 17.3 15.9V7.80001Z" fill="black"/>
<path d="M26.6 9.00001C26.6 8.66864 26.3313 8.40001 26 8.40001H23C22.6686 8.40001 22.4 8.66864 22.4 9.00001V15.9C22.4 16.2314 22.6686 16.5 23 16.5H26C26.3313 16.5 26.6 16.2314 26.6 15.9V9.00001Z" fill="black"/>
</svg>

<svg width="1em" height="1em" viewBox="0 0 35 35" xmlns="http://www.w3.org/2000/svg">
<circle cx="17.5" cy="17.5" r="17.5" fill="#B9433F"/>
<path d="m16.4 7.8c0-0.33137-0.2687-0.6-0.6-0.6h-3c-0.3314 0-0.6 0.26863-0.6 0.6v8.1c0 0.3314 0.2686 0.6 0.6 0.6h3c0.3313 0 0.6-0.2686 0.6-0.6v-8.1z"/>
<path d="m11.3 9c0-0.33137-0.2687-0.6-0.6-0.6h-3c-0.33138 0-0.6 0.26863-0.6 0.6v6.9c0 0.3314 0.26862 0.6 0.6 0.6h3c0.3313 0 0.6-0.2686 0.6-0.6v-6.9z"/>
<path d="m7.7 17.4c-0.33138 0-0.6 0.2686-0.6 0.6v7.2c0 0.3314 0.26862 0.6 0.6 0.6h5.1c0.3313 0 0.6-0.2686 0.6-0.6v-3c0-0.3314 0.2686-0.6 0.6-0.6h3c0.3313 0 0.6-0.2686 0.6-0.6v-3c0-0.3314-0.2687-0.6-0.6-0.6h-9.3z"/>
<path d="m21.5 26.4c0-0.3314 0.2686-0.6 0.6-0.6h4.2c0.3313 0 0.6-0.2686 0.6-0.6v-7.2c0-0.3314-0.2687-0.6-0.6-0.6h-6.9c-0.3314 0-0.6 0.2686-0.6 0.6v4.2c0 0.3314-0.2687 0.6-0.6 0.6h-3c-0.3314 0-0.6 0.2686-0.6 0.6v3c0 0.3314-0.2687 0.6-0.6 0.6h-0.9c-0.3314 0-0.6 0.2686-0.6 0.6v0.6c0 0.3314 0.2686 0.6 0.6 0.6h7.8c0.3313 0 0.6-0.2686 0.6-0.6v-1.8z"/>
<path d="m17.3 7.8c0-0.33137 0.2686-0.6 0.6-0.6h3c0.3313 0 0.6 0.26863 0.6 0.6v8.1c0 0.3314-0.2687 0.6-0.6 0.6h-3c-0.3314 0-0.6-0.2686-0.6-0.6v-8.1z"/>
<path d="m26.6 9c0-0.33137-0.2687-0.6-0.6-0.6h-3c-0.3314 0-0.6 0.26863-0.6 0.6v6.9c0 0.3314 0.2686 0.6 0.6 0.6h3c0.3313 0 0.6-0.2686 0.6-0.6v-6.9z"/>
</svg>
